X: 906
T: Gözlerin Hayran Bakarmış
C: Şerif İçli
O: Turkey
F: http://compmusic.upf.edu/node/140
N: ussak--sarki--devrihindi--gozlerin_hayran--serif_icli
N: makam= ussak
N: form= sarki
N: usul= devrihindi = 7/4
M: 7/4
L: 1/16
K: C _2/4B   
Q: 1/4=96
%%MIDI tuningsystem comma53
G4 A4 A4 A6c2 B2{c}BA G4  | d3c B4 c2d2 c2B2 B2A2 A8  | \
w:  Göz *  le rin  *  hay  |  ran  *  *  ba *  kar *  *  *  mış   | 
A2B2 c2d2 e2f2 e2d2 d2c2 B3A G4  | 
w:  gör *  *  *  me *  yip  *  *  *  ıs  | 
d3c B4 c2d2 d6Bd cBBA A4  | G4 A4 A4 A6c2 B2{c}BA G4  | 
w:  râ *  *  rı *  mı   SAZ  |  Göz *  le rin  *  hay  | 
d3c B4 c2d2 c2B2 B2A2 A8  | A2B2 c2d2 e2f2 e2d2 d2c2 B3A G4  | 
w:  ran  *  *  ba *  kar *  *  *  mış   |  gör *  *  *  me *  yip  *  *  *  ıs  | 
d3c B4 c2d2 d6ef eddc d4  | e2f2 e2d2 d2c2 d8 c2BA A4  | 
w:  râ *  *  rı *  mı   SAZ  |  Bil *  *  *  mi *  yor  â  | 
A2B2 A2B2 c2d2 c3B A2c2 B3A G4  | \
w:  vâ *  *  *  re  *  gön *  *  *  lün   | 
G2^FE F4 G4 A2B2 c2d2 (3d2c2d2 cBAB  | 
w:  öl *  *  *  dü ren  *  *  *  kalp  | 
d2{f}ed c2B2 B2A2 A6ef eddc d4  | \
w:  ağ *  *  *  *  *  rı *  mı   SAZ  | 
e2f2 e2d2 d2c2 d8 c2BA A4  | 
w:  Bil *  *  *  mi *  yor  â  | 
A2B2 A2B2 c2d2 c3B A2c2 B3A G4  | \
w:  vâ *  *  *  re  *  gön *  *  *  lün   | 
G2^FE F4 G4 A2B2 c2d2 (3d2c2d2 cBAB  | 
w:  öl *  *  *  dü ren  *  *  *  kalp  | 
d2{f}ed c2B2 B2A2 A6ef edcd e4  | \
w:  ağ *  *  *  *  *  rı *  mı   SAZ  | 
A8 f4 {f}e3d c2d2 e4 {f}e2d2  | 
w:  İs te *  mem  *  *  *  bir   | 
(3f2e2d2 d4 d2c2 c2B2 B2A2 A8  | A8 g4 f2e2 d2c2 B3A G4  | \
w:  aşk  *  *  *  ye *  ter  *  *  *  ben   |  şim di  bul *  *  *  dum   | 
d3c B4 c2d2 d6ef edcd e4  | 
w:  yâ *  *  ri *  mi   SAZ  | 
A8 f4 {f}e3d c2d2 e4 {f}e2d2  | (3f2e2d2 d4 d2c2 c2B2 B2A2 A8  | \
w:  İs te *  mem  *  *  *  bir   |  aşk  *  *  *  ye *  ter  *  *  *  ben   | 
A8 g4 f2e2 d2c2 B3A G4  | 
w:  şim di  bul *  *  *  dum   | 
d3c B4 c2d2 d6ef eddc d4  | e2f2 e2d2 d2c2 d8 c2BA A4  | 
w:  yâ *  *  ri *  mi   SAZ  |  Bil *  *  *  mi *  yor  â  | 
A2B2 A2B2 c2d2 c3B A2c2 B3A G4  | \
w:  vâ *  *  *  re  *  gön *  *  *  lün   | 
G2^FE F4 G4 A2B2 c2d2 (3d2c2d2 cBAB  | 
w:  öl *  *  *  dü ren  *  *  *  kalp  | 
d2{f}ed c2B2 B2A2 A6ef eddc d4  | \
w:  ağ *  *  *  *  *  rı *  mı   SAZ  | 
e2f2 e2d2 d2c2 d8 c2BA A4  | 
w:  Bil *  *  *  mi *  yor  â  | 
A2B2 A2B2 c2d2 c3B A2c2 B3A G4  | \
w:  vâ *  *  *  re  *  gön *  *  *  lün   | 
G2^FE F4 G4 A2B2 c2d2 (3d2c2d2 cBAB  | 
w:  öl *  *  *  dü ren  *  *  *  kalp  | 
d2{f}ed c2B2 B2A2 A6|
w:  ağ *  *  *  *  *  rı *  mı    | 


